!!!!SEGMENT: pl-kk--kk-i-2--048-001_anonim--ad-missam-in-natali-domini-sanctus.krn
!!!cenid: 16xx:1724
!!!COM: Anonim
!!!COM-rismID: pe30004985
!!!CDT:
!!!CNT:
!!!OPR: Ad missam In natali Domini
!!!OTL: Sanctus
!!!OMV: 001
!!!PDT:
!!!AGN: Sacred; Mass
!!!SMS-siglum: PL-Kk
!!!SMS-shelfmark: Kk.I.2
!!!SMS-shelfwork: 048-001 M
!!!NIFC-rismSourceID: 300258066
!!!NIFC-islandoraID: pl-kk:750
!!!URL-pdf-islandora: https://repozytorium.nifc.pl/islandora/object/pl-kk%3A750/datastream/PDF/view#page=83
!!!URL-scan: https://polish.musicsources.pl/pl/lokalizacje/galeria/rekopisy/5828 @EN{Scan on Polish Music Herritage in Open Access Website} @PL{Skany w portalu Dziedzictwo Muzyki Polskiej w otwartym dostępie}
!!!ONB-nifc: Części mszy: Sanctus, Agnus Dei; skany: C: 0083; A: 0187; T: 0285-0286; B: 0386-0387
!!!AIN: 1 alto 1 bass 1 soprn 1 tenor
!!!key: g:dor
**kern	**text	**kern	**text	**kern	**text	**kern	**text
*part4	*part4	*part3	*part3	*part2	*part2	*part1	*part1
*staff4	*staff4	*staff3	*staff3	*staff2	*staff2	*staff1	*staff1
*I"BASVS	*	*I"TENOR	*	*I"ALTVS	*	*I"DISCANTVS	*
*I'B	*	*I'T	*	*I'A	*	*I'S	*
*Ibass	*	*Itenor	*	*Ialto	*	*Isoprn	*
*ICvox	*	*ICvox	*	*ICvox	*	*ICvox	*
*clefF4	*	*clefC4	*	*clefC3	*	*clefC1	*
*k[b-]	*	*k[b-]	*	*k[b-]	*	*k[b-]	*
*g:dor	*	*g:dor	*	*g:dor	*	*g:dor	*
*M3/1	*	*M3/1	*	*M3/1	*	*M3/1	*
=1-	=1-	=1-	=1-	=1-	=1-	=1-	=1-
*all\right	*	*all\right	*	*all\right	*	*all\right	*
!LO:TX:t=Ad Miſsam in Natali Domini.	!	!	!	!LO:TX:a:t=Ad Miſsam In Natali D(omi)ni.	!	!	!
!LO:TX:b:i:rj:t=Sanctus&colon;	!	!LO:TX:t=Ad Miſsam In Natali Domini.	!	!LO:TX:a:t=4	!	!LO:TX:a:t=Ad Miſsam In Natali Domini	!
0G\	San-	0G/	San-	00.r	.	0b-\	San-
!LO:TX:t=P:problem:kreska pseudotaktowa	!	!LO:TX:t=P:problem:kreska pseudotaktowa	!	!	!	!LO:TX:t=P:problem:kreska pseudotaktowa	!
1D\	.	1F#X/	-ctus	.	.	1a\	-ctüs
=2-	=2-	=2-	=2-	=2-	=2-	=2-	=2-
*	*	*	*	*	*	*2\right	*
0G\	.	2G/	San-	.	.	(2b-\	San-
.	.	2F#/	.	.	.	2a\	.
.	.	2G/	.	.	.	2b-\	.
.	.	2A/	.	.	.	2cc\)	.
*2\right	*	*	*	*	*	*	*
!	!	!LO:TX:t=P:problem:kreska pseudotaktowa	!	!	!	!	!
2D\	.	1B-\	.	.	.	1dd\	.
!LO:TX:t=P:problem:kreska pseudotaktowa	!	!	!	!	!	!	!
2E\	.	.	.	.	.	.	.
=3-	=3-	=3-	=3-	=3-	=3-	=3-	=3-
!	!	!	!	!LO:TX:t=P:problem:kreska pseudotaktowa	!	!	!
0F#X\	.	0A\	.	00.r	.	0cc\	.
!	!	!	!	!	!	!LO:TX:t=P:problem:kreska pseudotaktowa	!
1G\	.	1G/	.	.	.	1b-\	.
=4-	=4-	=4-	=4-	=4-	=4-	=4-	=4-
!LO:TX:t=P:problem:kreska pseudotaktowa	!	!LO:TX:t=P:problem:kreska pseudotaktowa	!	!	!	!	!
0.D\,<	-ct(us)	0.F#X/,<	-ctus	.	.	0.a\	-ctus
=5-	=5-	=5-	=5-	=5-	=5-	=5-	=5-
*	*	*	*	*	*	*	*ij
0B-\	San-	0B-\	San-	0fn\	San-	0dd\	San-
!LO:TX:t=P:problem:kreska pseudotaktowa	!	!	!	!	!	!LO:TX:t=P:problem:kreska pseudotaktowa	!
1BB-/	-ct(us)	1B-\	-ctus	1f\	-ctus	1dd\	-ctus
=6-	=6-	=6-	=6-	=6-	=6-	=6-	=6-
*	*	*	*ij	*	*	*	*
1.Fny\	San-	1.A\	San-	0.f\	San-	1.cc\	San-
2E-X\	.	4G\	.	.	.	4b-\	.
.	.	4A\	.	.	.	4cc\	.
*	*	*2\right	*	*	*	*	*
!LO:TX:t=P:problem:kreska pseudotaktowa	!	!	!	!	!	!	!
1D\	.	2B-\	.	.	.	2dd\	.
!	!	!LO:TX:t=P:problem:kreska pseudotaktowa	!	!	!	!LO:TX:t=P:problem:kreska pseudotaktowa	!
.	.	2A\	.	.	.	2cc\	.
=7-	=7-	=7-	=7-	=7-	=7-	=7-	=7-
!LO:TX:a:t=P:problem:♭ above	!	!	!	!	!	!	!
*	*	*	*	*	*	*col	*
1E-X\	.	0G/	.	0e-X\	.	1b-\	.
1C/	.	.	.	.	.	0a\	.
*	*	*	*	*	*	*Xcol	*
!	!	!	!	!LO:TX:t=P:problem:kreska pseudotaktowa	!	!	!
1D\	.	1F#X/	.	1d\	.	.	.
=8-	=8-	=8-	=8-	=8-	=8-	=8-	=8-
!LO:TX:t=P:problem:kreska pseudotaktowa	!	!LO:TX:t=P:problem:kreska pseudotaktowa	!	!LO:TX:t=P:problem:kreska pseudotaktowa	!	!LO:TX:t=P:problem:kreska pseudotaktowa	!
0.GG/	-ct(us)	0.G/	-ctus	0.d\	-ct(us)	0.g\	-ctus
*	*	*	*Xij	*	*	*	*Xij
=9-	=9-	=9-	=9-	=9-	=9-	=9-	=9-
!	!	!	!	!LO:TX:a:t=6.	!	!	!
1D\	Do-	0.r	.	00.r	.	1.a\	Do-
2D\	-mi-	.	.	.	.	.	.
2D\	-n(us)	.	.	.	.	2a\	-mi-
1G\	De-	.	.	.	.	1b-\	-nus
=10-	=10-	=10-	=10-	=10-	=10-	=10-	=10-
(0F\	.	1.A\	Do-	.	.	0cc\	De-
.	.	2A\	-mi-	.	.	.	.
!	!	!LO:TX:t=P:problem:kreska pseudotaktowa	!	!	!	!LO:TX:t=P:problem:kreska pseudotaktowa	!
1G\)	.	1B-\	-n(us)	.	.	1b-\	-us
=11-	=11-	=11-	=11-	=11-	=11-	=11-	=11-
*	*	*	*ij	*	*	*	*ij
1F\,<	-us	1.c\	Do-	00.r	.	1.a\	Do-
*	*ij	*	*	*	*	*	*
2FF/	Do-	.	.	.	.	.	.
2FF/	-mi-	2c\	-mi-	.	.	2a\	-mi-
!	!	!LO:TX:t=P:problem:kreska pseudotaktowa	!	!	!	!LO:TX:t=P:problem:kreska pseudotaktowa	!
1GG/	-n(us)	1B-\	-n(us)	.	.	1g\	-nus
*	*	*	*Xij	*	*	*	*
=12-	=12-	=12-	=12-	=12-	=12-	=12-	=12-
0AA/	De-	0A\	De-	.	.	1.f/	De-
.	.	.	.	.	.	2e/	.
1BB-/	-us	1G/	-us	.	.	(2d/	-us
.	.	.	.	.	.	2e/)	.
*	*Xij	*	*	*	*	*	*Xij
=13-	=13-	=13-	=13-	=13-	=13-	=13-	=13-
!	!	!	!	!LO:TX:t=P:problem:kreska pseudotaktowa	!	!	!
1BB-/	Sab-	0G/	Sa-	00.r	.	0f/	Sa-
1.C/	.	.	.	.	.	.	.
.	.	1G/	-ba-	.	.	1e/	-ba-
2C/	-ba-	.	.	.	.	.	.
=14-	=14-	=14-	=14-	=14-	=14-	=14-	=14-
!	!	!LO:TX:t=P:problem:kreska pseudotaktowa	!	!	!	!	!
!LO:TX:t=P:problem:kreska pseudotaktowa	!	!LO:SIC:v:t=custos A	!	!	!	!LO:TX:t=P:problem:kreska pseudotaktowa	!
0.FF/;	-oth.	0.A\;,<	-oth.	.	.	0.f/;	-oth
!	!	!LO:PB:g=original	!	!	!	!	!
=15||-	=15||-	=15||-	=15||-	=15||-	=15||-	=15-	=15||-
1F\	Ple-	1A\	ple-	1f\	Ple-	1cc\	ple-
1F\	-ni	1A\	-ni	1f\	-ni	1cc\	-ni
!	!	!	!	!	!	!LO:TX:t=P:problem:kreska pseudotaktowa	!
!LO:SIC:v:t=custos F	!	!	!	!	!	!LO:SIC:v:t=custos cc	!
1BB-/	ſunt	1B-\	ſu(n)t	1f\	ſunt	1dd\	ſunt
!LO:LB:g=original	!	!	!	!	!	!LO:LB:g=original	!
=16-	=16-	=16-	=16-	=16-	=16-	=16-	=16-
0F\	cae-	0A\	cae-	0f\	cae-	0cc\	cae-
!LO:TX:t=P:problem:kreska pseudotaktowa	!	!LO:TX:t=P:problem:kreska pseudotaktowa	!	!LO:TX:t=P:problem:kreska pseudotaktowa	!	!LO:TX:t=P:problem:kreska pseudotaktowa	!
1F\	-li	1A\	-li	1f\	-li	1cc\	-li
=17-	=17-	=17-	=17-	=17-	=17-	=17-	=17-
*	*	*	*ij	*	*ij	*	*
1F\	ple-	1A\	ple-	1f\	Ple-	1cc\	ple-
1F\	-ni	1B-\	-ni	1f\	-ni	1dd\	-ni
!LO:TX:t=P:problem:kreska pseudotaktowa	!	!	!	!LO:TX:t=P:problem:kreska pseudotaktowa	!	!	!
1Eny\	ſunt	1c\	ſu(n)t	1g\	ſunt	1ee\	ſu(n)t
=18-	=18-	=18-	=18-	=18-	=18-	=18-	=18-
1D\	cae-	1d\	cae-	1f\	cae-	1ff\	cae-
1D\	-li	1d\	-li	1f\	-li	1ff\	-li
*	*	*	*Xij	*	*Xij	*	*
!	!	!LO:TX:t=P:problem:kreska pseudotaktowa	!	!	!	!	!
!LO:TX:t=P:problem:kreska pseudotaktowa	!	!LO:N:acc=#	!	!LO:TX:t=P:problem:kreska pseudotaktowa	!	!LO:TX:t=P:problem:kreska pseudotaktowa	!
1G\	et	1Bn\	et	1d\	et	1dd\	et
=19-	=19-	=19-	=19-	=19-	=19-	=19-	=19-
!	!	!	!	!	!	!LO:TX:t=P:problem:kreska pseudotaktowa	!
1C/	ter-	[0.c\	ter-	0e-X\	ter-	[<0.ee-X\	ter-
1C/,<	-ra	.	.	.	.	.	.
!	!	!	!	!LO:TX:t=P:problem:kreska pseudotaktowa	!	!	!
1A-X\	et	.	.	1e-\	-ra	.	.
=20-	=20-	=20-	=20-	=20-	=20-	=20-	=20-
*col	*	*	*	*col	*ij	*col	*
1E-X\	ter-	0c\]	.	1g\	et	1ee-\]	.
!LO:TX:t=P:problem:kreska pseudotaktowa	!	!	!	!	!	!	!
!	!	!	!	!LO:TX:t=P:problem:kreska pseudotaktowa	!	!	!
!	!	!	!	!	!	!LO:TX:t=P:problem:kreska pseudotaktowa	!
0G\	.	.	.	0d\	ter-	0dd\	.
*Xcol	*	*	*	*Xcol	*	*Xcol	*
!	!	!LO:N:acc=#	!	!	!	!	!
.	.	1Bn\	.	.	.	.	.
=21-	=21-	=21-	=21-	=21-	=21-	=21-	=21-
!	!	!	!	!LO:TX:t=P:problem:kreska pseudotaktowa	!	!	!
!	!	!LO:TX:t=P:problem:kreska pseudotaktowa	!	!LO:TX:a:t=P:problem:♮ above	!	!	!
0.C/,<	-ra	0.c\,<	-ra	0.e\	-ra	1cc\,<	-ra
.	.	.	.	.	.	2g\	glo-
.	.	.	.	.	.	2g\	-ri-
!	!	!	!	!	!	!LO:TX:t=P:problem:kreska pseudotaktowa	!
.	.	.	.	.	.	1a\	-a
=22-	=22-	=22-	=22-	=22-	=22-	=22-	=22-
*	*	*	*	*	*Xij	*	*ij
1.G\	glo-	1.d\	glo-	1.g\	glo-	1.b-\	glo-
*	*	*	*	*2\right	*	*	*
2G\	-ri-	2d\	-ri-	2g\	-ri-	2b-\	-ri-
!LO:TX:t=P:problem:kreska pseudotaktowa	!	!	!	!LO:TX:t=P:problem:kreska pseudotaktowa	!	!	!
1Any\	-a	1c\	-a	1f\	-a	1cc\	-a
=23-	=23-	=23-	=23-	=23-	=23-	=23-	=23-
*	*ij	*	*ij	*	*ij	*	*
!	!	!LO:TX:a:t=P:problem:♭ above	!	!	!	!	!
1.B-\	glo-	1.B-\	glo-	1.f\	glo-	1.dd\	glo-
2B-\	-ri-	2B-\	-ri-	2f\	-ri-	2dd\	-ri-
!LO:TX:t=P:problem:kreska pseudotaktowa	!	!LO:TX:t=P:problem:kreska pseudotaktowa	!	!LO:TX:t=P:problem:kreska pseudotaktowa	!	!LO:TX:t=P:problem:kreska pseudotaktowa	!
1F\	-a	1A\	-a	1a\	-a	1cc\	-a
*	*Xij	*	*	*	*Xij	*	*Xij
=24-	=24-	=24-	=24-	=24-	=24-	=24-	=24-
(2G\	glo-	2B-\	glo-	1.g\	glo-	2b-\	glo-
2F\	.	4c\	.	.	.	2a\	.
.	.	4d\	.	.	.	.	.
!	!	!LO:TX:a:t=P:problem:♭ above	!	!	!	!	!
2E-X\)	.	1.e-X\	.	.	.	2g\	.
2D\	.	.	.	2f\	.	4a\	.
.	.	.	.	.	.	4b-\	.
2C/	.	.	.	2e\	.	2cc\	.
!	!	!	!	!LO:TX:t=P:problem:kreska pseudotaktowa	!	!	!
!	!	!LO:TX:t=P:problem:kreska pseudotaktowa	!	!LO:SIC:v:t=custos c	!	!LO:TX:t=P:problem:kreska pseudotaktowa	!
4D/	.	2d\	.	2d\	.	2b-\	.
!LO:TX:t=P:problem:kreska pseudotaktowa	!	!	!	!	!	!	!
4E-/	.	.	.	.	.	.	.
!	!	!	!	!LO:LB:g=original	!	!	!
=25-	=25-	=25-	=25-	=25-	=25-	=25-	=25-
1.F\	.	1.c\	.	2c\	.	1.a\	.
.	.	.	.	4d\	.	.	.
.	.	.	.	4e\	.	.	.
.	.	.	.	1.f\	.	.	.
2F\	-ri-	2c\	-ri-	.	.	2a\	-ri-
!	!	!LO:TX:t=P:problem:kreska pseudotaktowa	!	!	!	!LO:TX:t=P:problem:kreska pseudotaktowa	!
1BB-/	-a	1d\	-a	.	.	1b-\	-a
!	!	!	!	!LO:TX:t=P:problem:kreska pseudotaktowa	!	!	!
.	.	.	.	2f\	-ri-	.	.
=26-	=26-	=26-	=26-	=26-	=26-	=26-	=26-
*	*ij	*	*Xij	*	*	*	*ij
1E-X\	glo-	1B-\	glo-	0e-X\	-a	1b-\	glo-
2E-\	-ri-	2G/	-ri-	.	.	2b-\	-ri-
2C/	-a	2G/	-a	.	.	2a,<\	-a
*	*Xij	*	*	*	*	*	*Xij
!LO:TX:t=P:problem:kreska pseudotaktowa	!	!	!	!LO:TX:t=P:problem:kreska pseudotaktowa	!	!	!
1D\	tu-	1F#X/	tu-	1d\	tu-	1a\	tu-
=27-	=27-	=27-	=27-	=27-	=27-	=27-	=27-
!	!	!LO:TX:t=P:problem:kreska pseudotaktowa	!	!LO:TX:t=P:problem:kreska pseudotaktowa	!	!LO:TX:t=P:problem:podwojna kreska pseudotaktowa	!
0.GG/,<	-a	0.G/,<	-a	0.d\;	-a	0.g\	-a
=28-	=28||-	=28||-	=28||-	=28||-	=28||-	=28||-	=28||-
1D\	O-	1d\	O-	1f\	O-	1a\	O-
1D\	-ſan-	1d\	-ſan-	1f\	-ſan-	1a\	-ſan-
!LO:TX:t=P:problem:kreska pseudotaktowa	!	!	!	!LO:TX:t=P:problem:kreska pseudotaktowa	!	!	!
1G\	-na	1B-\	-na	1g\	-na	1b-\	-na
=29-	=29-	=29-	=29-	=29-	=29-	=29-	=29-
0F\	in	(<1A\	in	0a\	in	0cc\	in
.	.	1B-\)	.	.	.	.	.
!	!	!LO:TX:t=P:problem:kreska pseudotaktowa	!	!	!	!LO:TX:t=P:problem:kreska pseudotaktowa	!
!	!	!LO:SIC:v:t=custos F	!	!LO:TX:t=P:problem:kreska pseudotaktowa	!	!LO:SIC:v:t=custos a	!
1C/	ex-	1c\	ex-	1g\	ex-	1cc\	ex
!	!	!LO:LB:g=original	!	!	!	!LO:LB:g=original	!
=30-	=30-	=30-	=30-	=30-	=30-	=30-	=30-
!	!	!	!	!LO:TX:t=P:problem:kreska pseudotaktowa	!	!	!
1D\	-cel-	1Fny/	-cel-	[<0.f\	-cel-	1a\	cel-
1D\	-ſis	1G/	.	.	.	1b-\	.
!LO:TX:t=P:problem:kreska pseudotaktowa	!	!	!	!	!	!	!
!LO:SIC:v:t=custos BB	!	!LO:TX:t=P:problem:kreska pseudotaktowa	!	!	!	!	!
1AA/	in	1A\	.	.	.	1cc\	.
!LO:PB:g=original	!	!	!	!	!	!	!
=31-	=31-	=31-	=31-	=31-	=31-	=31-	=31-
*col	*	*	*	*	*	*col	*
1BB-/	ex-	0G/	.	0f\]	.	1dd\	.
*	*	*	*	*	*	*Xcol	*
!	!	!	!	!	!	!LO:TX:t=P:problem:kreska pseudotaktowa	!
0C/	-cel-	.	.	.	.	0g\	.
.	.	1c\	.	1eny\	.	.	.
*Xcol	*	*	*	*	*	*	*
=32-	=32-	=32-	=32-	=32-	=32-	=32-	=32-
!LO:TX:t=P:problem:kreska pseudotaktowa	!	!LO:TX:t=P:problem:kreska pseudotaktowa	!	!LO:TX:t=P:problem:kreska pseudotaktowa	!	!LO:TX:t=P:problem:kreska pseudotaktowa	!
0.FF/	-ſis	0.A\	-ſis	0.f\	-ſis	0.f/	-ſis
=33-	=33-	=33-	=33-	=33-	=33-	=33-	=33-
*	*	*	*	*	*ij	*	*
1BB-/	O-	1B-\	O-	1f\	O-	1dd\	O-
1BB-/	-ſan-	(2d\	-ſan-	1f\	-ſan-	(2ff\	-ſan-
.	.	2c\)	.	.	.	2ee-X\)	.
!	!	!	!	!LO:TX:t=P:problem:kreska pseudotaktowa	!	!	!
1BB-/	-na	(2B-\	-na	1f\	-na	(2dd\	-na
!	!	!	!	!	!	!LO:TX:t=P:problem:kreska pseudotaktowa	!
.	.	2c\)	.	.	.	2ee-\)	.
=34-	=34-	=34-	=34-	=34-	=34-	=34-	=34-
0F\	in	0A\	in	0f\	in	0cc\	in
!LO:TX:t=P:problem:kreska pseudotaktowa	!	!LO:TX:t=P:problem:kreska pseudotaktowa	!	!LO:TX:t=P:problem:kreska pseudotaktowa	!	!	!
1F\	ex-	1A\	ex-	1f\	ex-	1cc\	ex-
=35-	=35-	=35-	=35-	=35-	=35-	=35-	=35-
0BB-/	-cel-	0B-\	-cel-	0f\	-cel-	0dd\	-cel-
!	!	!LO:TX:t=P:problem:kreska pseudotaktowa	!	!LO:TX:t=P:problem:kreska pseudotaktowa	!	!LO:TX:t=P:problem:kreska pseudotaktowa	!
1BB-/	-ſis	1B-\	-ſis	1f\	-ſis	1dd\,<	-ſis
*	*	*	*ij	*	*Xij	*	*
=36-	=36-	=36-	=36-	=36-	=36-	=36-	=36-
1E-X\	O-	1B-\	O-	1g\	O-	1b-\	o-
1E-\	-ſan-	1B-\	-ſan-	1g\	-ſan-	1b-\	-ſan-
!LO:TX:t=P:problem:kreska pseudotaktowa	!	!LO:TX:t=P:problem:kreska pseudotaktowa	!	!LO:TX:t=P:problem:kreska pseudotaktowa	!	!	!
1C/	-na	1e-X\	-na	1a\	-na	1cc\	-na
=37-	=37-	=37-	=37-	=37-	=37-	=37-	=37-
0D\	in	0d\	in	0f\	in	0a\	in
!	!	!	!	!LO:TX:t=P:problem:kreska pseudotaktowa	!	!LO:TX:t=P:problem:kreska pseudotaktowa	!
1BB-/	ex-	1d\	ex-	1g\	ex-	1b-\	ex-
=38-	=38-	=38-	=38-	=38-	=38-	=38-	=38-
1C/	-cel-	1c\	-ce-	1e\	-cel-	1g\	-cel-
1C/	-ſis	1c\	-ſis	1e\	-ſis	1g\	-ſis
*	*	*	*Xij	*	*	*	*
!	!	!LO:TX:t=P:problem:kreska pseudotaktowa	!	!LO:TX:t=P:problem:kreska pseudotaktowa	!	!	!
1AA/	in	1c\	in	1f\	in	1cc\	in
=39-	=39-	=39-	=39-	=39-	=39-	=39-	=39-
*col	*	*col	*	*	*	*col	*
1BB-/	ex-	1d\	ex-	1g\	ex-	1b-\	ex-
0D\	-cel-	0A\	-cel-	1g\	-cel-	0a\	-cel-
.	.	.	.	1f#X\	.	.	.
*Xcol	*	*Xcol	*	*	*	*	*
=40-	=40-	=40-	=40-	=40-	=40-	=40-	=40-
!	!	!LO:TX:t=P:problem:kreska pseudotaktowa	!	!	!	!	!
!LO:TX:t=P:problem:kreska pseudotaktowa	!	!LO:N:acc=#	!	!LO:TX:t=P:problem:kreska pseudotaktowa	!	!	!
*	*	*	*	*	*	*Xcol	*
!	!	!	!	!	!	!LO:TX:t=P:problem:kreska pseudotaktowa	!
0.GG/;l	-ſis	0.Bn\;l	-ſis	0.g\;<l	-ſis	0.g\;l	-ſis
=41||-	=41||-	=41||-	=41||-	=41||-	=41||-	=41||-	=41||-
!LO:TX:a:t=4	!	!LO:TX:a:t=3.	!	!LO:TX:a:t=1.	!	!	!
00.r	.	00.r	.	0.r	.	1r	.
.	.	.	.	.	.	1g\	Be-
!	!	!	!	!	!	!LO:TX:t=P:problem:kreska pseudotaktowa	!
.	.	.	.	.	.	1g\,<	-ne-
=42-	=42-	=42-	=42-	=42-	=42-	=42-	=42-
.	.	.	.	0d\	Be-	1dd\	-dic-
.	.	.	.	.	.	1dd\	-tus
!	!	!	!	!LO:TX:t=P:problem:kreska pseudotaktowa	!	!	!
!	!	!	!	!LO:SIC:v:t=custos g	!	!	!
.	.	.	.	1d\	-ne-	1a\	qui
!	!	!	!	!LO:LB:g=original	!	!	!
=43-	=43-	=43-	=43-	=43-	=43-	=43-	=43-
!LO:TX:t=P:problem:kreska pseudotaktowa	!	!LO:TX:t=P:problem:kreska pseudotaktowa	!	!	!	!	!
00.r	.	0.r	.	1g\	-dic-	(2b-\	ve-
.	.	.	.	.	.	2a\	.
.	.	.	.	1g\	-tus	2b-\	.
.	.	.	.	.	.	2cc\)	.
!	!	!	!	!LO:TX:t=P:problem:kreska pseudotaktowa	!	!LO:TX:t=P:problem:kreska pseudotaktowa	!
.	.	.	.	1d\	qui	1dd\	.
=44-	=44-	=44-	=44-	=44-	=44-	=44-	=44-
.	.	1r	.	2e\	ve-	0cc\	.
.	.	.	.	2d\	.	.	.
.	.	1G/	Be-	2e\	.	.	.
.	.	.	.	2fny\	.	.	.
!	!	!	!	!	!	!LO:TX:t=P:problem:kreska pseudotaktowa	!
!	!	!LO:TX:t=P:problem:kreska pseudotaktowa	!	!LO:TX:t=P:problem:kreska pseudotaktowa	!	!LO:SIC:v:t=custos b	!
.	.	1G/	-ne-	[<1g\	.	1b-\	.
!	!	!	!	!	!	!LO:LB:g=original	!
=45-	=45-	=45-	=45-	=45-	=45-	=45-	=45-
0D\	Be-	1d\	-dic-	0g\]	.	1b-\	.
.	.	1d\	-t(us)	.	.	2a\	.
.	.	.	.	.	.	2g\	.
!	!	!	!	!	!	!LO:TX:t=P:problem:kreska pseudotaktowa	!
1D\	-ne-	1A\	qui	1f#X\	.	1a\	.
=46-	=46-	=46-	=46-	=46-	=46-	=46-	=46-
!	!	!	!	!LO:TX:t=P:problem:kreska pseudotaktowa	!	!	!
1G\	-dic-	(2B-y\	ve-	0.g\	-nit	1g\,<	-nit
.	.	2A\	.	.	.	.	.
1G\	-t(us)	2B-\	.	.	.	1d/	Be-
.	.	2c\)	.	.	.	.	.
!	!	!LO:TX:t=P:problem:kreska pseudotaktowa	!	!	!	!	!
!LO:TX:t=P:problem:kreska pseudotaktowa	!	!LO:SIC:v:t=custos c	!	!	!	!LO:TX:t=P:problem:kreska pseudotaktowa	!
1D\	qui	1d\	.	.	.	1d/	-ne-
!	!	!LO:LB:g=original	!	!	!	!	!
=47-	=47-	=47-	=47-	=47-	=47-	=47-	=47-
(2Eny\	ve-	0c\	.	1r	.	1g\	-dic-
2D\	.	.	.	.	.	.	.
*	*	*	*	*	*ij	*	*
2E\	.	.	.	1G/	Be-	1g\	-t(us)
2F\)	.	.	.	.	.	.	.
!	!	!	!	!LO:TX:t=P:problem:kreska pseudotaktowa	!	!LO:TX:t=P:problem:kreska pseudotaktowa	!
1G\	.	1B-\	.	1G/	-ne-	1d/	qui
=48-	=48-	=48-	=48-	=48-	=48-	=48-	=48-
!LO:TX:t=P:problem:kreska pseudotaktowa	!	!	!	!	!	!	!
0.D\	.	1B-\	.	1d\	-dic-	2f/	ve-
.	.	.	.	.	.	(2e/	.
.	.	2A\	.	1d\	-tus	2f/	.
.	.	2G\	.	.	.	2g/)	.
!	!	!LO:TX:t=P:problem:kreska pseudotaktowa	!	!LO:TX:t=P:problem:kreska pseudotaktowa	!	!LO:TX:t=P:problem:kreska pseudotaktowa	!
.	.	1A\	.	1A/	qui	1a\	.
=49-	=49-	=49-	=49-	=49-	=49-	=49-	=49-
1GG/,<	-nit	0G/	-nit	2B-/	ve-	0g\	.
.	.	.	.	2A/	.	.	.
1GG/	Be-	.	.	2B-/	.	.	.
.	.	.	.	2c/	.	.	.
!LO:SIC:v:t=custos D	!	!LO:TX:t=P:problem:kreska pseudotaktowa	!	!LO:TX:t=P:problem:kreska pseudotaktowa	!	!	!
1GG/	-ne-	1r	.	1d\	.	[1f/	.
!LO:LB:g=original	!	!	!	!	!	!	!
=50-	=50-	=50-	=50-	=50-	=50-	=50-	=50-
1D\	-dic-	1r	.	0d\	.	1f/]	.
1D\	-t(us)	1r	.	.	.	2e/	.
.	.	.	.	.	.	2d/	.
!LO:TX:t=P:problem:kreska pseudotaktowa	!	!LO:TX:t=P:problem:kreska pseudotaktowa	!	!LO:TX:t=P:problem:kreska pseudotaktowa	!	!LO:TX:t=P:problem:kreska pseudotaktowa	!
1AA/	qui	1A\	qui	1c#X\	.	1e/	.
=51-	=51-	=51-	=51-	=51-	=51-	=51-	=51-
2BB-/	ve-	(2d\	ve-	1d\,<	-nit	0d/,<	-nit
*	*	*	*	*	*Xij	*	*
2AA/	.	2c\	.	.	.	.	.
2BB-/	.	2d\	.	1d\	Be-	.	.
2C/	.	2eny\)	.	.	.	.	.
!	!	!LO:TX:t=P:problem:kreska pseudotaktowa	!	!	!	!	!
1D\	.	1f\	.	1d\	-ne-	1d/	qui
=52-	=52-	=52-	=52-	=52-	=52-	=52-	=52-
!LO:TX:t=P:problem:kreska pseudotaktowa	!	!LO:TX:a:t=P:problem:♮ above	!	!	!	!	!
0.AA/	.	0.en\	.	1a\	-dic-	0d/	ve-
.	.	.	.	1a\	-t(us)	.	.
!	!	!	!	!LO:TX:t=P:problem:kreska pseudotaktowa	!	!	!
.	.	.	.	1e\	qui	1c#X/	.
=53-	=53-	=53-	=53-	=53-	=53-	=53-	=53-
!	!	!LO:TX:t=P:problem:kreska pseudotaktowa	!	!	!	!	!
0D\,<	-nit	0.d\	-nit	2fny\	ve-	0d/	-nit
.	.	.	.	2e\	.	.	.
.	.	.	.	2f\	.	.	.
.	.	.	.	2g\	.	.	.
!LO:TX:t=P:problem:kreska pseudotaktowa	!	!	!	!LO:TX:t=P:problem:kreska pseudotaktowa	!	!LO:TX:t=P:problem:kreska pseudotaktowa	!
1D\	in	.	.	1a\	.	1r	.
=54-	=54-	=54-	=54-	=54-	=54-	=54-	=54-
1.C/	no-	1r	.	2e\	.	1r	.
.	.	.	.	2d\	.	.	.
.	.	1G/	Be-	2e\	.	1r	.
2C/	-mi-	.	.	2f\	.	.	.
!	!	!LO:TX:t=P:problem:kreska pseudotaktowa	!	!LO:TX:t=P:problem:kreska pseudotaktowa	!	!	!
(2BB-/	-ne	1G/	-ne-	1g\	.	1dd\	in
!LO:TX:t=P:problem:kreska pseudotaktowa	!	!	!	!	!	!	!
2C/)	.	.	.	.	.	.	.
=55-	=55-	=55-	=55-	=55-	=55-	=55-	=55-
0D\	Do-	1d\	-dic-	0g\	.	1.a\	no-
.	.	1d\	-t(us)	.	.	.	.
.	.	.	.	.	.	2b-\	-mi-
!	!	!	!	!LO:TX:t=P:problem:kreska pseudotaktowa	!	!	!
!	!	!LO:TX:t=P:problem:kreska pseudotaktowa	!	!LO:SIC:v:t=custos g	!	!LO:TX:t=P:problem:kreska pseudotaktowa	!
1D\	-mi-	1A\	qui	1f#X\	.	1cc\	-ne
!	!	!	!	!LO:LB:g=original	!	!	!
=56-	=56-	=56-	=56-	=56-	=56-	=56-	=56-
0GG/	.	(2B-\	ve-	0g\,<	-nit	0b-\	Do-
.	.	2A\	.	.	.	.	.
.	.	2B-\	.	.	.	.	.
.	.	2c\)	.	.	.	.	.
!	!	!	!	!LO:TX:t=P:problem:kreska pseudotaktowa	!	!	!
1FF/	.	[1d\	.	1a\	in	1a\	-mi-
=57-	=57-	=57-	=57-	=57-	=57-	=57-	=57-
!LO:TX:t=P:problem:kreska pseudotaktowa	!	!	!	!	!	!LO:TX:t=P:problem:kreska pseudotaktowa	!
0.AA/	.	0d\]	.	1.e\	no-	0.a\	-ni
.	.	.	.	2fny\	-mi-	.	.
!	!	!LO:TX:t=P:problem:kreska pseudotaktowa	!	!LO:TX:t=P:problem:kreska pseudotaktowa	!	!	!
.	.	1c#X\	.	1g\	-ne	.	.
=58-	=58-	=58-	=58-	=58-	=58-	=58-	=58-
0D\,<	-ni	1d\,<	-nit	1.f\	Do-	00.r	.
.	.	1d\	in	.	.	.	.
.	.	.	.	2e\	.	.	.
*	*	*col	*	*	*	*	*
!	!	!LO:TX:t=P:problem:kreska pseudotaktowa:między nutą a kropką	!	!	!	!	!
1D\	in	(<1.A\	no-	2f\	.	.	.
!	!	!	!	!LO:TX:t=P:problem:kreska pseudotaktowa	!	!	!
.	.	.	.	2d\	.	.	.
=59-	=59-	=59-	=59-	=59-	=59-	=59-	=59-
!	!	!	!	!LO:TX:t=P:problem:kreska pseudotaktowa	!	!	!
1.AA/	no-	.	.	0.e\	.	.	.
.	.	2B-\)	.	.	.	.	.
*	*	*Xcol	*	*	*	*	*
.	.	1cny\	-mi-	.	.	.	.
2BB-/	-mi-	.	.	.	.	.	.
!LO:TX:t=P:problem:kreska pseudotaktowa	!	!	!	!	!	!	!
1C/	-ne	(2G/	-ne	.	.	.	.
!	!	!LO:TX:t=P:problem:kreska pseudotaktowa	!	!	!	!	!
.	.	2A/)	.	.	.	.	.
=60-	=60-	=60-	=60-	=60-	=60-	=60-	=60-
1.BB-/	Do-	1.B-\	Do-	1.d\	.	1r	.
.	.	.	.	.	.	1r	.
2AA/	.	2c\	.	4e\	.	.	.
.	.	.	.	4f\	.	.	.
!	!	!LO:TX:t=P:problem:kreska pseudotaktowa	!	!LO:TX:t=P:problem:kreska pseudotaktowa	!	!LO:TX:t=P:problem:kreska pseudotaktowa	!
2BB-/	.	1d\	.	1g\	.	1dd\	in
!LO:TX:t=P:problem:kreska pseudotaktowa	!	!	!	!	!	!	!
2GG/	.	.	.	.	.	.	.
!	!	!LO:LB:g=original	!	!	!	!	!
=61-	=61-	=61-	=61-	=61-	=61-	=61-	=61-
0AA/	.	1.c\	.	0g\	.	1.a\	no-
.	.	2B-\	.	.	.	2b-\	-mi-
!	!	!	!	!	!	!LO:TX:t=P:problem:kreska pseudotaktowa	!
!	!	!	!	!	!	!LO:SIC:v:t=custos b	!
1AA/	-mi-	2A\	.	1f#X\	-mi-	1cc\	-ne
.	.	2A\	-mi-	.	.	.	.
!	!	!	!	!	!	!LO:LB:g=original	!
=62-	=62-	=62-	=62-	=62-	=62-	=62-	=62-
!LO:TX:t=P:problem:kreska pseudotaktowa	!	!LO:TX:t=P:problem:kreska pseudotaktowa	!	!	!	!	!
0.GG/	-ni	0.B-\	-ni	1g\,<	-ni	1.b-\	Do-
.	.	.	.	1g\	in	.	.
.	.	.	.	.	.	2a\	.
*	*	*	*	*col	*	*	*
!	!	!	!	!LO:TX:t=P:problem:kreska pseudotaktowa:między nutą a kropką	!	!	!
.	.	.	.	1.d\	no-	2b-\	.
!	!	!	!	!	!	!LO:TX:t=P:problem:kreska pseudotaktowa	!
.	.	.	.	.	.	2g\	.
=63-	=63-	=63-	=63-	=63-	=63-	=63-	=63-
0.D\	Do-	00.r	.	.	.	1.a\	.
.	.	.	.	2e\	-mi-	.	.
*	*	*	*	*Xcol	*	*	*
.	.	.	.	1fny\	-ne	.	.
.	.	.	.	.	.	4b-\	.
.	.	.	.	.	.	4cc\	.
!	!	!	!	!LO:TX:t=P:problem:kreska pseudotaktowa	!	!	!
.	.	.	.	1f\	Do-	1dd\	.
=64-	=64-	=64-	=64-	=64-	=64-	=64-	=64-
0AA/	.	.	.	2e\	.	0dd\	.
.	.	.	.	2d\	.	.	.
.	.	.	.	1.e\	.	.	.
1AA/	-mi-	.	.	.	.	1cc#X\	-mi-
!	!	!	!	!LO:TX:t=P:problem:kreska pseudotaktowa	!	!	!
.	.	.	.	2e\	-mi-	.	.
=65-	=65-	=65-	=65-	=65-	=65-	=65-	=65-
!	!	!	!	!	!	!LO:TX:t=P:problem:kreska pseudotaktowa	!
0D\,<	-ni	1d\	in	1d\,<	-ni	0dd\	-ni
.	.	2A\	no-	1a\	in	.	.
.	.	2B-\	-mi-	.	.	.	.
!LO:SIC:v:t=custos E	!	!LO:TX:t=P:problem:kreska pseudotaktowa	!	!LO:TX:t=P:problem:kreska pseudotaktowa:między nutą a kropką	!	!	!
1A\	in	1c\	-ne	1.e\	no-	1r	.
!LO:LB:g=original	!	!	!	!	!	!	!
=66-	=66-	=66-	=66-	=66-	=66-	=66-	=66-
1.E\	no-	1.G/	Do-	.	.	0.r	.
.	.	.	.	2f\	-mi-	.	.
.	.	.	.	1g\	-ne	.	.
2F\	-mi-	2A/	.	.	.	.	.
!LO:TX:t=P:problem:kreska pseudotaktowa	!	!LO:TX:t=P:problem:kreska pseudotaktowa	!	!	!	!	!
1G\	-ne	1B-\	.	2d\	Do-	.	.
!	!	!	!	!LO:TX:t=P:problem:kreska pseudotaktowa	!	!	!
.	.	.	.	2e\	.	.	.
=67-	=67-	=67-	=67-	=67-	=67-	=67-	=67-
1.F\	Do-	1.A\	.	2f\	.	1r	.
.	.	.	.	2e\	.	.	.
.	.	.	.	2f\	.	1r	.
2E\	.	4B-\	.	2g\	.	.	.
.	.	4c\	.	.	.	.	.
*	*	*	*	*	*	*	*ij
!	!	!LO:TX:t=P:problem:kreska pseudotaktowa	!	!LO:TX:t=P:problem:kreska pseudotaktowa	!	!LO:TX:t=P:problem:kreska pseudotaktowa	!
2F\	.	1d\	.	1a\	.	1a\	Do-
2D\	.	.	.	.	.	.	.
=68-	=68-	=68-	=68-	=68-	=68-	=68-	=68-
0E\	.	0d\	.	1.g\	.	1.e/	.
.	.	.	.	2f\	.	2f/	.
!LO:TX:t=P:problem:kreska pseudotaktowa	!	!	!	!	!	!	!
1E\	-mi-	1c#X\	-mi-	2e\	.	1g\	.
!	!	!	!	!LO:TX:t=P:problem:kreska pseudotaktowa	!	!	!
!	!	!	!	!LO:SIC:v:t=custos f	!	!	!
.	.	.	.	2e\	-mi-	.	.
!	!	!	!	!LO:LB:g=original	!	!	!
=69-	=69-	=69-	=69-	=69-	=69-	=69-	=69-
0D\,<	-ni	0d\	-ni	1f\	-ni	1.f/	.
.	.	.	.	1d\	in	.	.
.	.	.	.	.	.	2e/	.
!	!	!LO:TX:t=P:problem:kreska pseudotaktowa	!	!LO:TX:t=P:problem:kreska pseudotaktowa:między nutą a kropką	!	!	!
1D\	in	1r	.	1.A/	no-	2f/	.
!	!	!	!	!	!	!LO:TX:t=P:problem:kreska pseudotaktowa	!
.	.	.	.	.	.	2d/	.
=70-	=70-	=70-	=70-	=70-	=70-	=70-	=70-
1.AA/	no-	0.r	.	.	.	0e/	.
.	.	.	.	2B-/	-mi-	.	.
.	.	.	.	1cny\	-ne	.	.
2BB-/	-mi-	.	.	.	.	.	.
!LO:TX:t=P:problem:kreska pseudotaktowa	!	!	!	!	!	!	!
1C/	-ne	.	.	2G/	Do-	1e/	-mi-
!	!	!	!	!LO:TX:t=P:problem:kreska pseudotaktowa	!	!	!
.	.	.	.	2A/	.	.	.
=71-	=71-	=71-	=71-	=71-	=71-	=71-	=71-
!	!	!	!	!	!	!LO:TX:t=P:problem:kreska pseudotaktowa	!
1.BB-/	Do-	1r	.	2B-/	.	0d/	-ni
*	*	*	*	*	*	*	*Xij
.	.	.	.	2A/	.	.	.
.	.	1r	.	2B-/	.	.	.
2AA/	.	.	.	2c/	.	.	.
!	!	!LO:TX:t=P:problem:kreska pseudotaktowa	!	!	!	!	!
2BB-/	.	1d\	in	2d\	.	1r	.
!	!	!	!	!LO:TX:t=P:problem:kreska pseudotaktowa	!	!	!
2GG/	.	.	.	2e\	.	.	.
=72-	=72-	=72-	=72-	=72-	=72-	=72-	=72-
1AA/	.	2A\	no-	1.f\	.	1r	.
.	.	2B-\	-mi-	.	.	.	.
2FF/	.	1cny\	-ne	.	.	1a\	in
2GG/	.	.	.	2e\	.	.	.
!	!	!	!	!	!	!LO:TX:t=P:problem:kreska pseudotaktowa:między nutą a kropką	!
2AA/	.	2c\	Do-	2c\	.	(<1.ccny\	no-
!LO:TX:t=P:problem:kreska pseudotaktowa	!	!LO:TX:t=P:problem:kreska pseudotaktowa	!	!LO:TX:t=P:problem:kreska pseudotaktowa	!	!	!
2BB-/	.	2B-\	.	2d\	.	.	.
=73-	=73-	=73-	=73-	=73-	=73-	=73-	=73-
1.C/	.	2G/	.	2e\	.	.	.
.	.	2A/	.	2f\	.	2b-\)	.
.	.	2B-/	.	1.g\	.	2g\	.
2BB-/	.	2c/	.	.	.	2a\	.
!	!	!LO:TX:t=P:problem:kreska pseudotaktowa:między nutą a kropką	!	!	!	!	!
2GG/	.	(<1.d\	.	.	.	2b-\	.
!LO:TX:t=P:problem:kreska pseudotaktowa	!	!	!	!LO:TX:t=P:problem:kreska pseudotaktowa	!	!LO:TX:t=P:problem:kreska pseudotaktowa	!
2AA/	.	.	.	2f\	.	2cc\	.
=74-	=74-	=74-	=74-	=74-	=74-	=74-	=74-
2BB-/	.	.	.	2d\	.	1.dd\	.
2C/	.	2c\)	.	2e\	.	.	.
2D/	.	2A\	.	2f\	.	.	.
2BB-/	.	2B-\	.	2d\	.	2dd\	-mi-
!	!	!	!	!	!	!LO:TX:t=P:problem:kreska pseudotaktowa	!
2C/	.	2c\	.	2e\	.	1cc\	-ne
!	!	!	!	!LO:TX:t=P:problem:kreska pseudotaktowa	!	!	!
2D/	.	4B-\	.	2f\	.	.	.
!	!	!LO:TX:t=P:problem:kreska pseudotaktowa	!	!	!	!	!
.	.	4A\	.	.	.	.	.
=75-	=75-	=75-	=75-	=75-	=75-	=75-	=75-
!	!	!	!	!LO:TX:t=P:problem:kreska pseudotaktowa	!	!	!
(<1E-X\	.	1G/	.	[<0g\T<	.	[<0.b-\	Do-
1D\)	.	1d\	.	.	.	.	.
!	!	!LO:TX:t=P:problem:kreska pseudotaktowa	!	!	!	!	!
!LO:TX:t=P:problem:kreska pseudotaktowa	!	!LO:SIC:v:t=custos B	!	!	!	!	!
1E-\	.	1c\	.	1g\_<	.	.	.
!	!	!LO:LB:g=original	!	!	!	!	!
=76-	=76-	=76-	=76-	=76-	=76-	=76-	=76-
!	!	!	!	!LO:TX:t=P:problem:kreska pseudotaktowa	!	!	!
(<1BB-/	.	1B-\	.	0.g\_<	.	0.b-\]	.
1E-X\)	.	1c\	.	.	.	.	.
!	!	!LO:TX:t=P:problem:kreska pseudotaktowa	!	!	!	!	!
1D\	.	1d\	.	.	.	.	.
=77-	=77-	=77-	=77-	=77-	=77-	=77-	=77-
1C/	.	1e-X\	.	0g\]	.	1b-\	.
1.D\	.	1.A\	.	.	.	1.a\	.
.	.	.	.	1f#X\	-mi-	.	.
!	!	!	!	!	!	!LO:TX:t=P:problem:kreska pseudotaktowa	!
!LO:TX:t=P:problem:kreska pseudotaktowa	!	!	!	!	!	!LO:SIC:v:t=custos g	!
2D\	-mi-	2A\	-mi-	.	.	2gT\	-mi-
!	!	!	!	!	!	!LO:PB:g=original	!
=78-	=78-	=78-	=78-	=78-	=78-	=78-	=78-
!	!	!LO:N:acc=#	!	!LO:TX:t=P:problem:kreska pseudotaktowa	!	!	!
0GG/;	-ni	0Bn\;,<	-ni	0g\	-ni	0g\,<	-ni
!LO:TX:t=P:problem:kreska pseudotaktowa	!	!LO:TX:t=P:problem:kreska pseudotaktowa	!	!	!	!LO:TX:t=P:problem:kreska pseudotaktowa	!
1r	.	1r	.	1r	.	1dd\	O-
=79-	=79-	=79-	=79-	=79-	=79-	=79-	=79-
!	!	!	!	!LO:TX:a:t=2	!	!	!
!	!	!	!	!LO:TX:t=P:problem:kreska pseudotaktowa	!	!	!
1r	.	0.r	.	00.r	.	1.g\	-ſan-
1r	.	.	.	.	.	.	.
.	.	.	.	.	.	2g\	-na
!LO:TX:t=P:problem:kreska pseudotaktowa	!	!	!	!	!	!	!
!LO:SIC:v:t=custos D	!	!	!	!	!	!	!
1G\	O-	.	.	.	.	2a\	in
!	!	!	!	!	!	!LO:TX:t=P:problem:kreska pseudotaktowa	!
.	.	.	.	.	.	2b-\	ex-
!LO:LB:g=original	!	!	!	!	!	!	!
=80-	=80-	=80-	=80-	=80-	=80-	=80-	=80-
1.D\	-ſan-	1r	.	.	.	1a\	-cel-
.	.	1r	.	.	.	1a\	-ſis
2D\	-na	.	.	.	.	.	.
*	*	*	*	*	*	*	*ij
!	!	!LO:TX:t=P:problem:kreska pseudotaktowa	!	!	!	!LO:TX:t=P:problem:kreska pseudotaktowa	!
2Eny\	in	1d\	O-	.	.	1a\	O-
2F\	ex-	.	.	.	.	.	.
=81-	=81-	=81-	=81-	=81-	=81-	=81-	=81-
1G\	-cel-	1.B-y\	-ſan-	1r	.	1.g\	-ſan-
1G\	-ſis.	.	.	1r	.	.	.
.	.	2B-\	-na	.	.	2g\	-na
!LO:TX:t=P:problem:kreska pseudotaktowa	!	!	!	!LO:TX:t=P:problem:kreska pseudotaktowa	!	!	!
1G\	O-	2c\	in	1g\	O-	2a\	in
.	.	2d\	ex-	.	.	2b-\	ex-
=82-	=82-	=82-	=82-	=82-	=82-	=82-	=82-
1.C/	-ſan-	1en\	-cel-	1.e\	-ſan-	0cc\	-cel-
.	.	1e\	-ſis	.	.	.	.
2C/	-na	.	.	2e\	-na	.	.
!	!	!LO:TX:t=P:problem:kreska pseudotaktowa	!	!	!	!LO:TX:t=P:problem:kreska pseudotaktowa	!
2D\	in	1e\	O-	2fny\	in	1b-\	.
!	!	!	!	!LO:TX:t=P:problem:kreska pseudotaktowa	!	!	!
!LO:TX:t=P:problem:kreska pseudotaktowa	!	!	!	!LO:SIC:v:t=custos a	!	!	!
2E\	ex-	.	.	2g\	ex-	.	.
!	!	!	!	!LO:PB:g=original	!	!	!
=83-	=83-	=83-	=83-	=83-	=83-	=83-	=83-
1.F\	-cel-	1.c\	-ſan-	1a\	-cel-	0a\,<	-ſis
*	*	*	*	*	*	*	*Xij
.	.	.	.	1a\,<	-ſis	.	.
2F\	-ſis	2c\	-na	.	.	.	.
!	!	!	!	!LO:TX:t=P:problem:kreska pseudotaktowa	!	!LO:TX:t=P:problem:kreska pseudotaktowa	!
2G\	in	2c\	in	1f\	O-	1a\	O-
!LO:TX:t=P:problem:kreska pseudotaktowa	!	!LO:TX:t=P:problem:kreska pseudotaktowa	!	!	!	!	!
2A\	ex-	2c\	ex-	.	.	.	.
=84-	=84-	=84-	=84-	=84-	=84-	=84-	=84-
0B-\	-cel-	1d\	-cel-	1.d\	-ſan-	1.f/	-ſan-
.	.	1d\	-ſis	.	.	.	.
.	.	.	.	2d\	-na	2f/	-na
!	!	!LO:TX:t=P:problem:kreska pseudotaktowa	!	!	!	!	!
1A\	.	1c\	O-	2e\	in	2g/	in
!	!	!	!	!LO:TX:t=P:problem:kreska pseudotaktowa	!	!LO:TX:t=P:problem:kreska pseudotaktowa	!
.	.	.	.	2f\	ex-	2a/	ex-
=85-	=85-	=85-	=85-	=85-	=85-	=85-	=85-
0G\	.	1B-\	-ſan-	1.g\	-cel-	1.b-\	-cel-
.	.	1B-\	-na	.	.	.	.
.	.	.	.	4f\	.	2d/	.
.	.	.	.	4g\	.	.	.
*	*	*	*ij	*	*	*	*
!LO:TX:t=P:problem:kreska pseudotaktowa	!	!LO:TX:t=P:problem:kreska pseudotaktowa	!	!LO:TX:t=P:problem:kreska pseudotaktowa	!	!	!
1F\	.	1A\	O-	1a\	.	2e/	.
!	!	!	!	!	!	!LO:TX:t=P:problem:kreska pseudotaktowa	!
.	.	.	.	.	.	2f/	.
=86-	=86-	=86-	=86-	=86-	=86-	=86-	=86-
0E\	.	1.B-\	-ſan-	0e\	.	1.g\	.
.	.	2c\	-na	.	.	4f\	.
*	*	*	*Xij	*	*	*	*
.	.	.	.	.	.	4g\	.
!LO:TX:t=P:problem:kreska pseudotaktowa	!	!LO:TX:t=P:problem:kreska pseudotaktowa	!	!	!	!LO:TX:t=P:problem:kreska pseudotaktowa	!
1F\	.	1d\	in	1d\	.	1a\	.
=87-	=87-	=87-	=87-	=87-	=87-	=87-	=87-
*col	*	*	*	*	*	*	*
1G\	.	1d\	ex-	0.e\	.	0d/,<	-ſis
0A\	.	1d\	-cel-	.	.	.	.
*Xcol	*	*	*	*	*	*	*
.	.	1c#X\	.	.	.	1a\	O-
=88-	=88-	=88-	=88-	=88-	=88-	=88-	=88-
0D\,<	-ſis	0d\	-ſis	0d\,<	-ſis	1.f#X/	-ſan-
.	.	.	.	.	.	2f#/	-na
!	!	!LO:TX:t=P:problem:kreska pseudotaktowa	!	!	!	!	!
!LO:TX:t=P:problem:kreska pseudotaktowa	!	!LO:SIC:v:t=custos B	!	!LO:TX:t=P:problem:kreska pseudotaktowa	!	!	!
1D\	O-	1d\	O-	1r	.	2g\	in
!	!	!	!	!	!	!LO:TX:t=P:problem:kreska pseudotaktowa	!
.	.	.	.	.	.	2a\	ex-
!	!	!LO:PB:g=original	!	!	!	!	!
=89-	=89-	=89-	=89-	=89-	=89-	=89-	=89-
1.GG/	-ſan-	1.B-\	-ſan-	1r	.	1b-\	-cel-
.	.	.	.	1r	.	1b-\	-ſis
2GG/	-na	2B-\	-na	.	.	.	.
*	*	*	*	*	*	*	*ij
2AA/	in	2cny\	in	1g\	O-	1b-\	O-
2BB-/	ex-	2d\	ex-	.	.	.	.
=90-	=90-	=90-	=90-	=90-	=90-	=90-	=90-
1C/	-cel-	1en\	-cel-	1.e\	-ſan-	1.g\	-ſan-
1C/	-ſis	1e\	-ſis	.	.	.	.
.	.	.	.	2e\	-na	2g\	-na
*	*	*	*ij	*	*	*	*
!LO:TX:t=P:problem:kreska pseudotaktowa	!	!LO:TX:t=P:problem:kreska pseudotaktowa	!	!	!	!	!
1C/	O-	1e\	O-	2f\	in	2a\	in
!	!	!	!	!	!	!LO:TX:t=P:problem:kreska pseudotaktowa	!
!	!	!	!	!LO:TX:t=P:problem:kreska pseudotaktowa	!	!LO:SIC:v:t=custos cc	!
.	.	.	.	2g\	ex-	2b-\	ex-
!	!	!	!	!	!	!LO:LB:g=original	!
=91-	=91-	=91-	=91-	=91-	=91-	=91-	=91-
1.FF/	-ſan-	1.c\	-ſan-	1a\	-cel-	1cc\	-cel-
.	.	.	.	1a\	-ſis	1cc\	-ſis
2FF/	-na	2A\	-na	.	.	.	.
*	*	*	*	*	*ij	*	*
!	!	!	!	!LO:TX:t=P:problem:kreska pseudotaktowa	!	!LO:TX:t=P:problem:kreska pseudotaktowa	!
2GG/	in	2B-\	in	1a\	O-	1cc\	O-
!LO:SIC:v:t=custos BB	!	!	!	!	!	!	!
2AA/	ex-	2c\	ex-	.	.	.	.
!LO:LB:g=original	!	!	!	!	!	!	!
=92-	=92-	=92-	=92-	=92-	=92-	=92-	=92-
1.BB-/	-cel-	0d\	-cel-	1.d\	-ſan-	1.fny/	-ſan-
2BB-/	-ſis	.	.	2c\	-na	2e/	-na-
!	!	!LO:TX:t=P:problem:kreska pseudotaktowa	!	!	!	!	!
1BB-/	in	1d\	-ſis	2d\	in	2f/	-in
!	!	!	!	!	!	!LO:TX:t=P:problem:kreska pseudotaktowa	!
.	.	.	.	2e\	ex-	2g/	ex-
=93-	=93-	=93-	=93-	=93-	=93-	=93-	=93-
*col	*	*	*Xij	*	*	*col	*
1FF/	ex-	1r	.	0f\	-cel-	1a\	-cel-
0C/	-cel-	1r	.	.	.	0g\	.
!	!	!LO:TX:t=P:problem:kreska pseudotaktowa	!	!LO:TX:t=P:problem:kreska pseudotaktowa	!	!	!
.	.	1c\	O-	1e\	.	.	.
=94-	=94-	=94-	=94-	=94-	=94-	=94-	=94-
*Xcol	*	*	*	*	*	*Xcol	*
0FF/,<	-ſis	1.A\	-ſan-	0f\,<	-ſis	0f/	-ſis
.	.	2A\	-na	.	.	.	.
*	*	*	*	*	*Xij	*	*
!LO:TX:t=P:problem:kreska pseudotaktowa	!	!	!	!LO:TX:t=P:problem:kreska pseudotaktowa	!	!LO:TX:t=P:problem:kreska pseudotaktowa	!
1F\	O-	2B-\	in	1f\	O-	1r	.
.	.	2c\	ex-	.	.	.	.
=95-	=95-	=95-	=95-	=95-	=95-	=95-	=95-
1.BB-/	-ſan-	1d\	-cel-	1.d\	-ſan-	1r	.
.	.	1d\	-ſis	.	.	1r	.
2BB-/	-na	.	.	2d\	-na	.	.
*	*	*	*ij	*	*	*	*
!	!	!LO:TX:t=P:problem:kreska pseudotaktowa	!	!	!	!	!
2C/	in	1d\	O-	2e\	in	1b-\	O-
!	!	!	!	!LO:TX:t=P:problem:kreska pseudotaktowa	!	!	!
2D/	ex-	.	.	2f\	ex-	.	.
=96-	=96-	=96-	=96-	=96-	=96-	=96-	=96-
1E-X\	-cel-	1.B-\	-ſan-	1g\	-cel-	1.g\	-ſan-
1E-\	-ſis	.	.	1g\	-ſis	.	.
.	.	2B-\	-na	.	.	2g\	-na-
!	!	!	!	!LO:TX:t=P:problem:kreska pseudotaktowa	!	!	!
!LO:TX:t=P:problem:kreska pseudotaktowa	!	!	!	!LO:SIC:v:t=custos e-	!	!	!
1D\	O-	2c\	in	1f\	O-	2a\	-in
!	!	!	!	!	!	!LO:TX:t=P:problem:kreska pseudotaktowa	!
.	.	2d\	ex-	.	.	2b-\	ex-
!	!	!	!	!LO:LB:g=original	!	!	!
=97-	=97-	=97-	=97-	=97-	=97-	=97-	=97-
1.C/	-ſan-	1e-X\	-cel-	1.e-X\	-ſan-	1cc\	-cel-
.	.	1e-\	-ſis	.	.	1cc\	-ſis
*	*	*	*	*	*	*	*Xij
2C/	-na	.	.	2e-\	-na	.	.
!LO:TX:t=P:problem:kreska pseudotaktowa	!	!LO:TX:t=P:problem:kreska pseudotaktowa	!	!	!	!LO:TX:t=P:problem:kreska pseudotaktowa	!
1BB-/	O-	1d\	O-	2f\	in	1dd\	O-
!	!	!	!	!LO:TX:t=P:problem:kreska pseudotaktowa	!	!	!
.	.	.	.	2g\	ex-	.	.
=98-	=98-	=98-	=98-	=98-	=98-	=98-	=98-
1.AA/	-ſan-	1.c\	-ſan-	1.a\	-cel-	1.f#X/	-ſan-
2AA/	-na	2c\	-na	2a\	-ſis	2f#/	-na
!LO:TX:t=P:problem:kreska pseudotaktowa	!	!LO:TX:t=P:problem:kreska pseudotaktowa	!	!LO:TX:t=P:problem:kreska pseudotaktowa	!	!	!
1BB-/	in	1d\	in	1g\	in	2g\	in
!	!	!	!	!	!	!LO:TX:t=P:problem:kreska pseudotaktowa	!
.	.	.	.	.	.	2a\	ex-
=99-	=99-	=99-	=99-	=99-	=99-	=99-	=99-
*	*	*col	*	*	*	*col	*
1GG/	ex-	1d\	ex-	1g\	ex-	1b-\	-cel-
0D\	-cel-	0d\	-cel-	1g\	-cel-	0a\	.
*	*	*Xcol	*	*	*	*Xcol	*
.	.	.	.	1f#X\	.	.	.
=100-	=100-	=100-	=100-	=100-	=100-	=100-	=100-
!	!	!LO:N:acc=#	!	!	!	!	!
0.GG/;l	-ſis	0.Bn\;l	-ſis	0.g\l	-ſis	0.g\l	-ſis
==	==	==	==	==	==	==	==
*-	*-	*-	*-	*-	*-	*-	*-
!!!system-decoration: s1,s2,s3,s4
!!!RDF**kern: > = above
!!!RDF**kern: < = below
!!!RDF**kern: l = terminal long
!!!ENC: Berenika Jozajtis
!!!END: 2022-05-03
!!!EED: Andrzej Borzym
!!!EEV: 2022-05-11
